X:172
T: SO SCHLAEGT DIE BITTRE TRENNUNGSSTUNDE
N: E0759
O: Europa, Mitteleuropa, Deutschland, Thueringen
R: Abschieds - Lied, Liebe
M: 4/4
L: 1/16
K: Bb
F4 | d6c2B2A2G2F2 | F3ED4z2
B2B2A2 | G4G4c4c4 | d8z4
d4 | d6A2B2B2d2B2 | A4G4z2
G2e2c2 | f4d3BF4G2A2 | B8z2
E2E2E2 | D4z6C2C2E2 | D12

